X: 3744
T: Bird's Nest, The
R: reel
M: 4/4
K: Aminor
eA A/A/A GABG|A2AB cded|cA A2 GAcG|Aage dcde|
cA A/A/A GAcG|A2AB cded|cAAc GAcG|Aage dcde||
eaag egdg|ecgc egcg|eaag edcd|eage d2de|
eaag egdg|ecgc egca|gefe dcBG|Aage dced||

